X: 4
T: The Butterfly
R: slip jig
M: 9/8
L: 1/8
K: Emin
|: B2 E G2 E FED | B2 E G2 E FGA | B2 E G2 E F3 | B2 d- d2 B AFD :||: B2 c e2 f g3 | B2 ^c g2 e dBA | B2 d e2 f g2 a | b2 a g2 e dBA :||: B3 B2 A G2 A | B3 B^AB dB=A | BcB B2 A G2 A | B2 d g2 e dBA :||: B2 c e2 f g2 c | BB/c/d g2 e dB^A | B2 c e2 f g3 | baf gfe dB^A :||: B2 ^c e2 f g2 A | B2 ^c gec d2 A | B2 ^c e2 f g2 a | b2 a g2 e dBA :||: B2 d e2 f g3 | B2 d g2 e dBA | B2 d e2 f g2 a | b3 ag/f/e dBA :||: *B3 e2 f g3 | *B3 g2 e dBA | *B3 e2 f g3 | b2 a g2 e dBA :|


Tune 10	Setting 12371

